X: 7214
T: City Of Savannah
R: hornpipe
M: 4/4
K: Dmajor
(3FG^G|(3ABA FA dfaf|gaba gfed|cded cdBc|ABGA FE (3FG^G|
(3ABA FA dfaf|gaba gfed|cbag fABc|(3dcd fe ~d2:|
|:(3cd^d|(3efe ce aec'e|be^ge aec'e|(3efe ce aec'e|be^ge ~a2 a^g|
(3aba ga ea ~A2|(3aba fa daAf|(3gag Bg (3fgf Af|(3efe Bc ~d2:|

